X: 24880
T: Magnet, The
R: reel
M: 4/4
K: Cmajor
||cded cGAE|G2AG EDDA|cdeg ~e2eg|a2ge eddA|
cded cGAE|G2AG EDDA|cdeg ~e2eg|a2ge edde||
ge~e2 gage|dged eA~A2|ge~e2 ~g2ge|dged ~e2ef|
ge~e2 gage|dged eAAD|EGAE GA (3Bcd|egab aged||

